images_sukapura_svg/cmd/32/showannotations.svg

<svg viewBox="0 0 32 32" xmlns="http://www.w3.org/2000/svg" xmlns:xlink="http://www.w3.org/1999/xlink"><linearGradient id="a" gradientUnits="userSpaceOnUse" x1="17" x2="17" y1="30" y2="4"><stop offset="0" stop-color="#f5f5f5"/><stop offset=".3888889" stop-color="#fdfdfd"/><stop offset="1" stop-color="#fff"/></linearGradient><path d="m5 3.5c-.831 0-1.5.669-1.5 1.5v16c0 .831.669 1.5 1.5 1.5h3.5v6l7-6h11.5c.831 0 1.5-.669 1.5-1.5v-16c0-.831-.669-1.5-1.5-1.5z" fill="url(#a)" stroke="#98989d"/></svg>

<?xml version="1.0" encoding="UTF-8" standalone="no"?>
<svg
   xmlns:dc="http://purl.org/dc/elements/1.1/"
   xmlns:cc="http://creativecommons.org/ns#"
   xmlns:rdf="http://www.w3.org/1999/02/22-rdf-syntax-ns#"
   xmlns:svg="http://www.w3.org/2000/svg"
   xmlns="http://www.w3.org/2000/svg"
   xmlns:xlink="http://www.w3.org/1999/xlink"
   xmlns:sodipodi="http://sodipodi.sourceforge.net/DTD/sodipodi-0.dtd"
   xmlns:inkscape="http://www.inkscape.org/namespaces/inkscape"
   viewBox="0 0 32 32"
   version="1.1"
   id="svg4"
   sodipodi:docname="showannotations.svg"
   inkscape:version="0.92.3 (2405546, 2018-03-11)">
  <metadata
     id="metadata10">
    <rdf:RDF>
      <cc:Work
         rdf:about="">
        <dc:format>image/svg+xml</dc:format>
        <dc:type
           rdf:resource="http://purl.org/dc/dcmitype/StillImage" />
        <dc:title></dc:title>
      </cc:Work>
    </rdf:RDF>
  </metadata>
  <defs
     id="defs8">
    <linearGradient
       inkscape:collect="always"
       id="linearGradient883">
      <stop
         style="stop-color:#f5f5f5;stop-opacity:1;"
         offset="0"
         id="stop879" />
      <stop
         id="stop887"
         offset="0.3888889"
         style="stop-color:#fdfdfd;stop-opacity:1" />
      <stop
         style="stop-color:#ffffff;stop-opacity:1"
         offset="1"
         id="stop881" />
    </linearGradient>
    <linearGradient
       inkscape:collect="always"
       xlink:href="#linearGradient883"
       id="linearGradient847"
       x1="17"
       y1="30"
       x2="17"
       y2="4"
       gradientUnits="userSpaceOnUse" />
  </defs>
  <sodipodi:namedview
     pagecolor="#ffffff"
     bordercolor="#666666"
     borderopacity="1"
     objecttolerance="10"
     gridtolerance="10"
     guidetolerance="10"
     inkscape:pageopacity="0"
     inkscape:pageshadow="2"
     inkscape:window-width="1366"
     inkscape:window-height="692"
     id="namedview6"
     showgrid="true"
     inkscape:zoom="3.6875"
     inkscape:cx="60.277445"
     inkscape:cy="11.513575"
     inkscape:window-x="0"
     inkscape:window-y="0"
     inkscape:window-maximized="1"
     inkscape:current-layer="svg4">
    <inkscape:grid
       type="xygrid"
       id="grid817"
       spacingx="0.5"
       spacingy="0.5"
       empspacing="2" />
  </sodipodi:namedview>
  <path
     style="stroke:#98989d;stroke-opacity:1;fill:url(#linearGradient847);fill-opacity:1"
     d="M 5 3.5 C 4.169 3.5 3.5 4.169 3.5 5 L 3.5 21 C 3.5 21.831 4.169 22.5 5 22.5 L 8.5 22.5 L 8.5 28.5 L 15.5 22.5 L 27 22.5 C 27.831 22.5 28.5 21.831 28.5 21 L 28.5 5 C 28.5 4.169 27.831 3.5 27 3.5 L 5 3.5 z "
     id="path2" />
</svg>
